teeny/solid/cup.svg

<svg width="15" height="15" viewBox="0 0 15 15" fill="none" xmlns="http://www.w3.org/2000/svg">
<path d="M7 4H8V0H7V4Z" fill="black"/>
<path d="M5 2V4H4V2H5Z" fill="black"/>
<path fill-rule="evenodd" clip-rule="evenodd" d="M0 6.5C0 5.67157 0.671573 5 1.5 5H10.5C11.1531 5 11.7087 5.4174 11.9146 6H13.5C14.3284 6 15 6.67157 15 7.5V9.5C15 10.3284 14.3284 11 13.5 11H12V11.5C12 13.433 10.433 15 8.5 15H3.5C1.567 15 0 13.433 0 11.5V6.5ZM12 10H13.5C13.7761 10 14 9.77614 14 9.5V7.5C14 7.22386 13.7761 7 13.5 7H12V10Z" fill="black"/>
</svg>

<svg viewBox="0 0 15 15" xmlns="http://www.w3.org/2000/svg"><g><path d="M7 4h1V0H7v4Z"/><path d="M5 2v2H4V2h1Z"/><path fill-rule="evenodd" d="M0 6.5C0 5.67.67 5 1.5 5h9c.65 0 1.2.41 1.41 1h1.58c.82 0 1.5.67 1.5 1.5v2c0 .82-.68 1.5-1.5 1.5h-1.5v.5c0 1.93-1.57 3.5-3.5 3.5h-5c-1.933 0-3.5-1.57-3.5-3.5v-5ZM12 10h1.5c.27 0 .5-.23.5-.5v-2c0-.28-.23-.5-.5-.5H12v3Z"/></g></svg>
